!!!ONB: MCCC : IJH0427_03 : Extracted Monophonic Melody
!!!COM: Haydn, Joseph
!!!OPR: String Quartet in D major
!!!OMV: 3
!!!SCT: Hob.III:30 ; Op.17 No.6
!!!ODT: 1771///
**kern
*thru
*k[f#]
*G:
*clefG
*M4/4
*MM50
1gg[
=1
2gg]
2dd
=2
16b
32a
32g
8.g
32f#
32g
32f#
32g
32f#
32g
16cc
32b
32a
8.a
32g#
32a
32g#
32a
32cc
32a
=3
16b
32a
32g
8.g
32f#
32g
32b
32g
32dd
32b
16cc
32b
32a
8.a
32g#
32a
32cc
32a
32ee
32cc
=4
16b
32a
32g
8G
4r
2bb
=5
32aa
32ff#
32cc#
32dd
4d
16fff#
16aa
32aa
32gg
32ff#
32gg
4gg
32ggg
32eee
32ccc#
32gg
=6
16gg
32ff#
32gg
8.ff#
16aa
16aa
32gg
32ff#
32ff#
32ee
32dd#
32ee
8.ee
16gg
16gg
32ff#
32ee
=7
32ee
32dd
32cc#
32dd
8.dd
16aa
16aa
32gg
32ff#
32ff#
32ee
32dd#
32ee
8.bb
16b
16cc#
16dd
=8
1aa[
=9
16aa]
16aa
16dd
16dd
16cc#
16cc#
16cc
16cc
16b
16b
16b-
16b-
16a
16a
16g#
16dd
=10
8.cc#
16b
4.a
32cc#
32b
32dd
32cc#
32ee
32dd
32ff#
32ee
32gg
32ff#
32aa
32gg
=11
4.gg
32ff#
32ee
32dd
32cc#
4.aa
32gg
32ff#
32ee
32dd#
=12
8.ee
32ff#
32gg
8.g
32f#
32g
16f#
16dd
16dd
16dd
8.dd
32cc#
32dd
=13
16b
16bb
16bb
16bb
8.gg
32ff#
32gg
8ff#
8aa
8bb
8ccc#
=14
2ddd
2fff#
=15
4.fff#
8a
2ee
=16
16dd
16f#
16a
16g
16f#
16a
16g
16f#
16r
16e
16g
16f#
16e
16g
16f#
16e
=17
16r
16f#
16a
16g
16f#
16ff#
16ee
16dd
16r
16ee
16.gg
32ff#
16ff#
16ee
16dd
16cc#
=18
1dd[
=19
2dd]
2aa
=20
16ff#
32ee
32dd
8.dd
32cc#
32dd
32cc#
32dd
32cc#
32dd
16gg
32ff#
32ee
8.ee
32dd#
32ee
32dd#
32ee
32gg
32ee
=21
16ff#
32ee
32dd
8.dd
32cc#
32dd
32ff#
32dd
32aa
32ff#
16gg
32ff#
32ee
8.ee
32dd#
32ee
32gg
32ee
32bb
32gg
=22
16ff#
32ee
32dd
8d
4r
2dd
=23
4dd#[
16dd#]
16ccc
16bb
16aa
16gg
32ff#
32ee
8.ee
16ddd#
16eee
16gg
=24
32gg
32ff#
32ee#
32ff#
8.ff#
16fff#
16ddd#
16aa
16gg
32ff#
32ee
8.ee
16gg
16gg
16gg
=25
2gg
4gg#[
16gg#]
16fff
16eee
16gg#
=26
16aa
32gg#
32aa
8aa[
32aa]
32bb
32ccc
32bb
16ccc
32bb
32aa
16gg
16ff#
8.ff#
16eee
16ddd
16ff#
=27
16gg
32ff#
32gg
8.gg
16gg
16bb
16dd
16cc
32b
32cc
8.ccc
16aa
16ff#
16cc
=28
16cc
32b
32cc
8.b
16ddd
16ddd
32ccc
32bb
32bb
32aa
32gg#
32aa
8.aa
16ccc
16ccc
32bb
32aa
=29
32aa
32gg
32ff#
32gg
8.gg
16ddd
16ddd
32ccc
32bb
32bb
32aa
32gg#
32aa
8.eee
16ee
16ff#
16gg
=30
1ddd[
=31
16ddd]
16ddd
16gg
16gg
16ff#
16ff#
16ff
16ff
16ee
16ee
16ee-
16ee-
16dd
16dd
16cc#
16gg
=32
8.ff#
16ee
4.dd
32ff#
32ee
32gg
32ff#
32aa
32gg
32bb
32aa
32ccc
32bb
32ddd
32ccc
=33
4.ccc
32bb
32aa
32gg
32ff#
4.ddd
32ccc
32bb
32aa
32gg#
=34
8.aa
32bb
32ccc
8.cc
32b
32cc
16b
16gg
16gg
16gg
8.gg
32ff#
32gg
=35
16ee
16eee
16eee
16eee
8.ccc
32bb
32ccc
8bb
8ddd
8eee
8fff#
=36
1ggg
=37
4.ggg
8d
2a
=38
16g
16b
16dd
16cc
16b
16dd
16cc
16b
16r
16a
16cc
16b
16a
16cc
16b
16a
=39
16r
16b
16dd
16cc
16b
16bb
16aa
16gg
16r
16aa
16.ccc
32bb
16bb
16aa
16gg
16ff#
=40
1gg[
=41
16gg]
16b
16dd
16cc
16b
16dd
16cc
16b
16r
16cc
16ee
16dd
16cc
16a
16g
16f#
=42
4f#
8g
2r
8r
==
*-
